svgs/duotone/school-circle-xmark.svg

<svg xmlns="http://www.w3.org/2000/svg" viewBox="0 0 640 512"><!--! Font Awesome Pro 6.5.1 by @fontawesome - https://fontawesome.com License - https://fontawesome.com/license (Commercial License) Copyright 2023 Fonticons, Inc. --><defs><style>.fa-secondary{opacity:.4}</style></defs><path class="fa-secondary" d="M302.2 5.4c10.7-7.2 24.8-7.2 35.5 0L473.7 96H592c26.5 0 48 21.5 48 48V266.8C608.1 221.6 555.5 192 496 192c-38.5 0-74.2 12.4-103.1 33.4c9.6-14.1 15.1-31.1 15.1-49.4c0-48.6-39.4-88-88-88s-88 39.4-88 88s39.4 88 88 88c15.6 0 30.2-4 42.9-11.1c-23.4 27.1-38.8 61.4-42.2 99.1h-.5l-.3 0c-35.3 0-64 28.7-64 64v96h64v0H48c-26.5 0-48-21.5-48-48V144c0-26.5 21.5-48 48-48H166.3L302.2 5.4zM80 208v64c0 8.8 7.2 16 16 16h32c8.8 0 16-7.2 16-16V208c0-8.8-7.2-16-16-16H96c-8.8 0-16 7.2-16 16zm0 128v64c0 8.8 7.2 16 16 16h32c8.8 0 16-7.2 16-16V336c0-8.8-7.2-16-16-16H96c-8.8 0-16 7.2-16 16zM336 144v16h16c8.8 0 16 7.2 16 16s-7.2 16-16 16H320c-8.8 0-16-7.2-16-16V144c0-8.8 7.2-16 16-16s16 7.2 16 16z"/><path class="fa-primary" d="M352 368a144 144 0 1 1 288 0 144 144 0 1 1 -288 0zm203.3-59.3c-6.2-6.2-16.4-6.2-22.6 0L496 345.4l-36.7-36.7c-6.2-6.2-16.4-6.2-22.6 0s-6.2 16.4 0 22.6L473.4 368l-36.7 36.7c-6.2 6.2-6.2 16.4 0 22.6s16.4 6.2 22.6 0L496 390.6l36.7 36.7c6.2 6.2 16.4 6.2 22.6 0s6.2-16.4 0-22.6L518.6 368l36.7-36.7c6.2-6.2 6.2-16.4 0-22.6z"/></svg>

<svg xmlns="http://www.w3.org/2000/svg" viewBox="0 0 640 512"><!--! Font Awesome Pro 6.1.1 by @fontawesome - https://fontawesome.com License - https://fontawesome.com/license (Commercial License) Copyright 2022 Fonticons, Inc. --><defs><style>.fa-secondary{opacity:.4}</style></defs><path class="fa-primary" d="M640 368C640 447.5 575.5 512 496 512C416.5 512 352 447.5 352 368C352 288.5 416.5 224 496 224C575.5 224 640 288.5 640 368zM532.7 308.7L496 345.4L459.3 308.7C453.1 302.4 442.9 302.4 436.7 308.7C430.4 314.9 430.4 325.1 436.7 331.3L473.4 368L436.7 404.7C430.4 410.9 430.4 421.1 436.7 427.3C442.9 433.6 453.1 433.6 459.3 427.3L496 390.6L532.7 427.3C538.9 433.6 549.1 433.6 555.3 427.3C561.6 421.1 561.6 410.9 555.3 404.7L518.6 368L555.3 331.3C561.6 325.1 561.6 314.9 555.3 308.7C549.1 302.4 538.9 302.4 532.7 308.7z"/><path class="fa-secondary" d="M302.2 5.374C312.1-1.791 327-1.791 337.8 5.374L476.8 98.06L602.4 125.1C624.4 130.9 640 150.3 640 172.8V266.8C608.1 221.6 555.5 191.1 496 191.1C457.5 191.1 421.8 204.4 392.9 225.4C402.4 211.3 408 194.3 408 175.1C408 127.4 368.6 87.1 320 87.1C271.4 87.1 232 127.4 232 175.1C232 224.6 271.4 263.1 320 263.1C335.6 263.1 350.2 259.1 362.9 252.9C339.4 279.9 324.1 314.3 320.7 352H320.3L320 352C284.7 352 256 380.7 256 416V512H320L48 512C21.49 512 0 490.5 0 464V172.8C0 150.3 15.63 130.9 37.59 125.1L163.2 98.06L302.2 5.374zM80 272C80 280.8 87.16 288 96 288H128C136.8 288 144 280.8 144 272V208C144 199.2 136.8 192 128 192H96C87.16 192 80 199.2 80 208V272zM80 400C80 408.8 87.16 416 96 416H128C136.8 416 144 408.8 144 400V336C144 327.2 136.8 320 128 320H96C87.16 320 80 327.2 80 336V400zM336 160H352C360.8 160 368 167.2 368 176C368 184.8 360.8 192 352 192H320C311.2 192 304 184.8 304 176V144C304 135.2 311.2 128 320 128C328.8 128 336 135.2 336 144V160z"/></svg>
